icons/thumb-up.svg

<svg width="24" height="24" viewBox="0 0 24 24" fill="none" xmlns="http://www.w3.org/2000/svg">
<path fill-rule="evenodd" clip-rule="evenodd" d="M13.5882 4C13.3119 4 13.0338 4.11602 12.8189 4.34429C12.6021 4.57459 12.4706 4.89917 12.4706 5.24932V6.37398C12.4706 7.8135 11.9328 9.2053 10.9582 10.2405C10.4043 10.8288 9.73419 11.275 9 11.551V19.9946H17.8235C17.8536 19.9946 17.8836 19.9959 17.9135 19.9986C18.0007 20.0065 18.1693 19.9823 18.39 19.7479C18.6173 19.5065 18.8372 19.0971 18.9615 18.5441L19.9977 13.0411C19.9791 12.7221 19.8517 12.4294 19.6517 12.2169C19.4368 11.9887 19.1586 11.8726 18.8824 11.8726H15.7059C15.1536 11.8726 14.7059 11.4249 14.7059 10.8726V5.24932C14.7059 4.89917 14.5744 4.57459 14.3575 4.34429C14.1426 4.11602 13.8645 4 13.5882 4ZM7 19.9946V11.9599C6.81073 11.9825 6.62549 12 6.5 12H4V19.9946H7ZM11.3627 2.97334C11.9421 2.35794 12.7413 2 13.5882 2C14.4352 2 15.2344 2.35794 15.8137 2.97334C16.3912 3.58669 16.7059 4.40636 16.7059 5.24932V9.87263H18.8824C19.7293 9.87263 20.5285 10.2306 21.1079 10.846C21.6853 11.4593 22 12.279 22 13.122C22 13.184 21.9942 13.246 21.9827 13.307L20.9239 18.9303C20.9228 18.9361 20.9217 18.9419 20.9205 18.9477C20.9196 18.952 20.9186 18.9564 20.9177 18.9608C20.7368 19.7803 20.3809 20.5509 19.8462 21.1188C19.3142 21.6839 18.5933 22.0502 17.7845 21.9946H3C2.44772 21.9946 2 21.5469 2 20.9946V11C2 10.4477 2.44772 10 3 10H6.49777C6.49765 10 6.49777 10 6.49777 10C6.49777 9.99994 6.51223 9.9995 6.5471 9.99666C6.58566 9.99352 6.63553 9.98856 6.69577 9.98175C6.81612 9.96814 6.96191 9.94897 7.11233 9.92761C7.41906 9.88406 7.70912 9.8366 7.80861 9.8172C8.43725 9.69462 9.03041 9.37045 9.502 8.86953C10.116 8.2174 10.4706 7.32069 10.4706 6.37398V5.24932C10.4706 4.40636 10.7853 3.58669 11.3627 2.97334Z" fill="black"/>
</svg>

<svg
  width="24"
  height="24"
  viewBox="0 0 24 24"
  xmlns="http://www.w3.org/2000/svg"
>
  <path
    fill-rule="evenodd"
    clip-rule="evenodd"
    d="M13.588 4c-.276 0-.554.116-.77.344-.216.23-.347.555-.347.905v1.125c0 1.44-.538 2.831-1.513 3.867A5.21 5.21 0 0 1 9 11.55v8.444h8.823a1 1 0 0 1 .09.004c.088.008.256-.017.477-.251.227-.242.447-.65.572-1.204l1.036-5.503a1.316 1.316 0 0 0-.346-.824 1.058 1.058 0 0 0-.77-.344h-3.176a1 1 0 0 1-1-1V5.249c0-.35-.132-.674-.348-.905a1.057 1.057 0 0 0-.77-.344zM7 19.995V11.96a4.77 4.77 0 0 1-.5.04H4v7.995h3zm4.363-17.022A3.057 3.057 0 0 1 13.588 2c.847 0 1.646.358 2.226.973.577.614.892 1.433.892 2.276v4.624h2.176c.847 0 1.646.358 2.226.973.577.613.892 1.433.892 2.276a1 1 0 0 1-.017.185l-1.06 5.623-.002.018-.003.013c-.181.82-.537 1.59-1.072 2.158-.532.565-1.253.931-2.061.876H3a1 1 0 0 1-1-1V11a1 1 0 0 1 1-1h3.498l.05-.003a15.393 15.393 0 0 0 .565-.07c.306-.043.596-.09.696-.11a3.16 3.16 0 0 0 1.693-.947 3.645 3.645 0 0 0 .969-2.496V5.249c0-.843.314-1.662.892-2.276z"
  />
</svg>
